X:36
T:Nyth y Gog [The Cuckoo's Nest]
C:Welsh Trad.
S:Cambrian Trifles (1812)
S:Lesl Harker <lmh@RCONS.COM> irtrad-l 2001-8-8
Z:gchapin@CTEL.NET
M:C|
L:1/8
Q:1/2=90
K:Em
EF|:GFGF E2ge|dBAG FAGF|GFGA BABc|d2A2 A2BA|
GFGF E2ge|dBAG FAGF|GFGA BcBA|1 G2E2 E2EF:|2 G2E2 E2B2||
|:e^def egfe|=d2B2 B3A|GBdB GBdB|c2A2 A4|
e^def egfe|=d2B2 B3A|GFGA BcBA|1 G2E2 E2B2:|2 G2E2 E4|
|:BGEG BGEG|BGBG E2FG|AFDF AFDF|AFAF D2EF|
GFGF E2ge|dBAG FAGF|GFGA BcBA|G2E2 E4:||
